X: 1380
T: Dave and Mary's Mazurka
C:Bob Rummery, Sorrento, WA
B: australian traditional tunes wiki
M:3/4
L:1/8
R: Mazurka
Q: 1/4=100
K:D
V:1 
F>A|:"D"f2f>g f>e|d2d>c d>B|A2A>B (3AFE|D2D>E F>D|
"A7"E2E>F G>A|B2A2A2|1A2c>d e>c|"D"A4A>d:|2"A7"A>B c>A B>c|"D"d6||
"G"B2d2d>B|"D"A2F2A2|f2f>e d>f|"A7"e6|"G"g2d2d>g|"D"f2d2-d>B|A2A>B (3AGF|"A7"E6|
"D"F2A2(3ABc|d2d>e f>g|a2a>e f>d|"G"B6|g2g>f e>g|"D"f2f>e d>f|"A7"g>ec2e2|"D"d6-|d4z2||
% abcbook-tune_id 6342d53a020408a17d8d1daf


% abcbook-boost 0
% abcbook-tablature 
% abcbook-transpose 
% abcbook-lastupdated 1665324362103
% abcbook-soundfonts 
% abcbook-repeats 1
% NFF Book 2008

